X:44
T: Piros alma mosolyog a hegytetőn
K: F
M: 4/4
L: 1/4
gggf | ddga | g^f d2 | 
gggf | gdcd | c<B G2 | 
c>d c<B | GGAB | c<B G2 | 
d<d dg | fd_BA | GGG2 | 

